X:1
T:Title
%%score [ ( 1 2 ) ( 3 4 ) ]
L:1/8
Q:1/4=240
M:4/4
K:E
V:1 treble nm="Midi_74"
V:2 treble 
V:3 bass nm="Midi_74"
V:4 bass 
V:1
"^Psalm 93" E8 | F4 A4 | G8 || B8 | c4 G4 | B6 A2 |"^James Turle" G8 |] %7
V:2
 E8 | E4 E4 | E8 || (E6 =D2) | C4 E4 | E4 D4 | E8 |] %7
V:3
 G,8 | A,4 C4 | B,8 || E,8 | E,4 E,4 | F,4 B,4 | B,8 |] %7
V:4
 E,8 | E,4 E,4 | E,8 || G,,8 | A,,4 C,4 | B,,4 B,,4 | E,8 |] %7

